X: 24
T: Congress, The
C: Joe Mills
Z: leprecawn
S: https://thesession.org/tunes/208#setting47732
R: reel
M: 4/4
L: 1/8
K: Ador
|:eAAG A2 Bd|eaaf gedg|eAcA eAcA|BGGA Bdeg|
eAAG A2 Bd|eaaf gedB|cBcd eged|cABG A2 (3Bcd:|
|:eaag a3 g|eaag egdg|egdg egdg|eaaf gedg|
eaag a3 g|eaaf gedB|cBcd eged|cABG A2 (3Bcd:|

